X: 21
T: Rights Of Man, The
Z: Will The Whistler
S: https://thesession.org/tunes/83#setting50544
R: hornpipe
M: 4/4
L: 1/8
K: Emin
|:GA|(3BcB (3ABA (3GAG (3FGF|EFGA B2ef|{a}gfed {f}edBd|cBAG FDGA|
(3BcB (3ABA (3GAG (3FGF|EFGA B2ef|{a}gfed Bgfg|e2 E2 E2:|
|:ga|babg efga|bagf egfe|d^cde fefg|afdf ~a2gf|
~e3 f ~g3 a|b2 af {a}gfef|gfed Bgfg|e2 ED EFGA:|

